z_dist/img/icons/social/telegram.svg

<svg width="19" height="19" viewBox="0 0 19 19" fill="none" xmlns="http://www.w3.org/2000/svg">
<path d="M9.50016 15.8334C11.1799 15.8334 12.7908 15.1661 13.9785 13.9784C15.1662 12.7907 15.8335 11.1797 15.8335 9.50004C15.8335 7.82034 15.1662 6.20943 13.9785 5.0217C12.7908 3.83397 11.1799 3.16671 9.50016 3.16671C7.82046 3.16671 6.20955 3.83397 5.02182 5.0217C3.83409 6.20943 3.16683 7.82034 3.16683 9.50004C3.16683 11.1797 3.83409 12.7907 5.02182 13.9784C6.20955 15.1661 7.82046 15.8334 9.50016 15.8334ZM9.50016 17.4167C5.12779 17.4167 1.5835 13.8724 1.5835 9.50004C1.5835 5.12767 5.12779 1.58337 9.50016 1.58337C13.8725 1.58337 17.4168 5.12767 17.4168 9.50004C17.4168 13.8724 13.8725 17.4167 9.50016 17.4167ZM7.03808 10.4263L5.0605 9.80958C4.633 9.67896 4.63062 9.38446 5.15629 9.17308L12.8616 6.19642C13.3089 6.01433 13.5622 6.24471 13.4173 6.82183L12.1055 13.0127C12.0137 13.4536 11.7485 13.5589 11.3804 13.3555L9.36083 11.8608L8.41954 12.7696C8.32296 12.863 8.24458 12.943 8.09575 12.9628C7.9477 12.9834 7.82579 12.939 7.73633 12.6936L7.04758 10.4207L7.03808 10.4263Z" fill="#E0BEA2"/>
</svg>

<svg width="19" height="19" fill="none" xmlns="http://www.w3.org/2000/svg"><path d="M9.5 15.833a6.333 6.333 0 100-12.666 6.333 6.333 0 000 12.666zm0 1.584a7.917 7.917 0 110-15.833 7.917 7.917 0 010 15.833zm-2.462-6.99L5.06 9.81c-.427-.131-.43-.426.096-.637l7.706-2.977c.447-.182.7.049.555.626l-1.312 6.19c-.091.442-.357.547-.725.343l-2.02-1.494-.94.909c-.097.093-.175.173-.324.193-.148.02-.27-.024-.36-.27l-.688-2.272-.01.005z" fill="#E0BEA2"/></svg>
